!!!!SEGMENT: pl-wumfc--n57163-cim_damse-jozef--walc-nowy.krn
!!!cenid: 18xx:4123
!!!COM: Damse, Józef
!!!COM-rismID: pe30008765
!!!CDT: 1789-1852
!!!CNT:
!!!OTL: Walc Nowy
!!!PDT:
!!!AGN:
!!!YEC: Copyright 2022 Narodowy Instytut Fryderyka Chopina (https://polishscores.org)
!!!YEM: License CC-BY-4.0 (https://creativecommons.org/licenses/by/4.0)
!!!SMS-siglum: PL-Wumfc
!!!SMS-shelfmark: N57163 cim.
!!!SMS-shelfwork: W
!!!SMS-variant:
!!!SMS-altvar:
!!!NIFC-rismSourceID: 1001202637
!!!NIFC-rismChildID: 1001202637
!!!NIFC-islandoraID: pl-wumfc:24626
!!!URL-pdf-islandora: https://repozytorium.nifc.pl/islandora/object/pl-wumfc%3A24626/datastream/PDF/view
!!!URL-scan: https://polish.musicsources.pl/pl/lokalizacje/galeria/druki-muzyczne/12610/1 @EN{Scan on Polish Music Sources Website} @PL{Skany w portalu Dziedzictwo Muzyki Polskiej w otwartym dostępie}
!!!IIIF:
!!!ONB-nifc:
!!!AIN: 1 piano
!!!key: G
**kern	**kern	**dynam
*part1	*part1	*part1
*staff2	*staff1	*staff1/2
*>[A,B,B,C,C1,C,C2,D,D,E,E,F,F,A,B,C,C2,D]	*>[A,B,B,C,C1,C,C2,D,D,E,E,F,F,A,B,C,C2,D]	*
*>A	*>A	*
*I"Walec.	*I"Walec.	*
*mI"Pianoforte	*mI"Pianoforte	*
*I'	*I'	*
*mI'pf	*mI'pf	*
*Ipiano	*Ipiano	*
*ICklav	*ICklav	*
*clefF4	*clefG2	*
*k[f#]	*k[f#]	*
*MM100	*MM100	*
*G:	*G:	*
*M3/8	*M3/8	*
=1	=1	=1
!!LO:TX:t=P:problem=niepewne określenie, do którego momentu jest powtórka w części da capo
8GGL 8GGG/	8gL 8G/	f
8AA 8AAA/	8a 8A/	.
8BBJ 8BBB/	8bJ 8B/	.
=2	=2	=2
4C 4CC/	4cc 4c/	.
8BB 8BBB/	8b 8B/	.
=3	=3	=3
8AAL 8AAA/	8aL 8A/	.
8BB 8BBB/	8b 8B/	.
8CJ 8CC/	8ccJ 8c/	.
=4	=4	=4
4D 4DD/	4dd 4d/	.
8C 8CC/	8cc 8c/	.
=5	=5	=5
8BBL 8BBB/	8bL 8B/	.
8C 8CC/	8cc 8c/	.
8DJ 8DD/	8ddJ 8d/	.
=6	=6	=6
4E 4EE/	4ee 4e/	.
8D 8DD/	8dd 8d/	.
=7	=7	=7
8GL 8E 8AA\	16cc#X\LL	.
.	16dd\	.
16GL 16E 16AA\	16ee\	.
16GJ 16E 16AA\	16ff#\	.
8GJ 8E 8AA\	16gg\	.
.	16cc#\JJ	.
=8	=8	=8
4F# 4D\	4dd\	.
=!|:	=!|:	=!|:
*>B	*>B	*
!	!LO:TX:a:i:cj:t=dolce.:mod=dolce	!
8r	8dd\	.
=9	=9	=9
8G\L	4bb\	.
8d 8B\	.	.
8dJ 8B\	16aa\LL	.
.	16bb\JJ	.
=10	=10	=10
8F#\L	4ddd\	.
8d 8c 8A\	.	.
8dJ 8c 8A\	16ccc\LL	.
.	16aa\JJ	.
!!LO:LB:g=original
=11	=11	=11
8G\L	4gg\	.
8d 8B\	.	.
8dJ 8B\	16aa\LL	.
.	16bb\JJ	.
=12	=12	=12
8G\L	4dd\	.
8d 8B\	.	.
8dJ 8B\	8gg\	.
=13	=13	=13
!	!LO:N:vis=4.	!
8F#\L	4aa\	.
8d 8c 8A\	.	.
8dJ 8c 8A\	16gg\LL	.
.	16aa\JJ	.
=14	=14	=14
8G\L	4bb\	.
8d 8B\	.	.
8dJ 8B\	16aa\LL	.
.	16bb\JJ	.
=15	=15	=15
8G#X\L	4.ddd 4.dd\	.
8e 8B\	.	.
8eJ 8B\	.	.
=16	=16	=16
8A\L	4ccc#X 4cc#X\	.
8e 8c#X 8A\	.	.
8dJ 8A 8F#\	8cccn 8ccn\	.
=17	=17	=17
8G\L	4bb\	.
8d 8B\	.	.
8dJ 8B\	16aa\LL	.
.	16bb\JJ	.
=18	=18	=18
8F#\L	4ddd\	.
8d 8c 8A\	.	.
8dJ 8c 8A\	16ccc\LL	.
.	16aa\JJ	.
=19	=19	=19
8G\L	4gg\	.
8d 8B\	.	.
8dJ 8B\	16aa\LL	.
.	16bb\JJ	.
=20	=20	=20
8G\L	4dd\	.
8d 8B\	.	.
8dJ 8B\	8bb\	.
=21	=21	=21
8A\L	8aa\	.
8f# 8d\	4ddd 4dd\	.
8f#J 8d\	.	.
=22	=22	=22
8A\L	16ccc#X\LL	.
.	16bb\	.
8g 8e\	16aa\	.
.	16gg\	.
8gJ 8e\	16ff#\	.
.	16ee\JJ	.
!!LO:LB:g=original
=23	=23	=23
8f#L 8d\	4dd\	.
8f# 8d 8A\	.	.
8gJ 8c#X 8A\	16ff#\LL	.
.	16ee\JJ	.
=24	=24	=24
4f# 4d\	4dd\	.
=:|!|:	=:|!|:	=:|!|:
*>C	*>C	*
8r	8dd\	.
=25	=25	=25
*tremolo	*	*
8B-XL 8G 8D\	4gg\	.
8B- 8G 8D\	.	.
8B-J 8G 8D\	16gg\LL	.
.	16aa\JJ	.
=26	=26	=26
8B-XL 8G 8D\	4bb-X\	.
8B- 8G 8D\	.	.
8B-J 8G 8D\	16bb-\LL	.
.	16ccc\JJ	.
=27	=27	=27
8AL 8F#X 8D\	4ddd\	.
8A 8F# 8D\	.	.
8AJ 8F# 8D\	16ccc\LL	.
.	16bb-X\JJ	.
=28	=28	=28
8AL 8F# 8D\	4aa\	.
8A 8F# 8D\	.	.
8AJ 8F# 8D\	8dd\	.
=29	=29	=29
8B-XL 8G 8D\	4gg\	.
8B- 8G 8D\	.	.
8B-J 8G 8D\	16gg\LL	.
.	16aa\JJ	.
=30	=30	=30
!LO:SIC:v:o=8BL 8G 8D\	!	!
8B-L 8G 8D	4bb-X\	.
!LO:SIC:v:o=8B 8G 8D\	!	!
8B- 8G 8D	.	.
!LO:SIC:v:o=8BJ 8G 8D\	!	!
8B-J 8G 8D	16bb-\LL	.
.	16ccc\JJ	.
=31	=31	=31
8AL 8F#X 8D\	4ddd\	.
8A 8F# 8D\	.	.
8AJ 8F# 8D\	16ccc\LL	.
.	16bb-X\JJ	.
=32	=32	=32
8AL 8F# 8D\	4aa\	.
8A 8F# 8D\	.	.
8AJ 8F# 8D\	16gg\LL	.
.	16aa\JJ	.
*Xtremolo	*	*
=33	=33	=33
!LO:TX:t=P:problem=mixed beam	!	!
8GG/L	4bb-X\	.
8B-X 8G\	.	.
8B-J 8G\	16gg\LL	.
.	16aa\JJ	.
!!LO:TX:t=P:problem=defekt źródła w tt. 34-36, uzupełniono na podstawie https://vmirror.imslp.org/files/imglnks/usimg/1/1f/IMSLP775461-PMLP1228387-NDIGMUZ005381.pdf (A.K.)
!!LO:LB:g=original
=34	=34	=34
!LO:TX:t=P:problem=mixed beam	!LO:SIC:v:o=4bb\	!
8GG/L	4bb-	.
8B-X 8G\	.	.
8B-J 8G\	16gg\LL	.
.	16aa\JJ	.
=35	=35	=35
!LO:TX:t=P:problem=mixed beam	!	!
8EE-X/L	4bb-\	.
8B-X 8G 8E-X\	.	.
8B-J 8G 8E-\	16aa\LL	.
.	16bb-\JJ	.
=36	=36	=36
*tremolo	*	*
8fnL 8c 8A-X\	8.ddd^<\L	.
8f 8c 8A-	.	.
.	16ccc\L	.
8fJ 8c 8A-\	16aa-X\	.
.	16ffn\JJ	.
*clefG2	*	*
=37	=37	=37
8gL 8e-X 8B-X/	8.ccc^<\L	.
8g 8e- 8B-/	.	.
.	16bb-X\L	.
8gJ 8e- 8B-/	16gg\	.
.	16ee-X\JJ	.
=38	=38	=38
!LO:SIC:v:o=8a-XL 8f# 8B-X/	!	!
8a-L 8f 8B-	8.bb-X\L	.
!LO:SIC:v:o=8a- 8f# 8B-/	!	!
8a- 8f 8B-	.	.
.	16aa-X\L	.
!LO:SIC:v:o=8a-J 8f# 8B-/	!LO:SIC:v:o=16ff#\	!
8a-J 8f 8B-	16ff	.
.	16dd\JJ	.
*Xtremolo	*	*
=39	=39	=39
!LO:TX:t=P:problem=mixed beam	!	!
8gL 8e-X/	4ee-X\	.
*clefF4	*	*
8G 8E-X\	.	.
8GJ 8E-\	16gg\LL	.
.	16aan\JJ	.
=40	=40	=40
8c#XL 8G 8E\	4bb-X\	.
8c# 8G 8E\	.	.
8c#J 8G 8E\	16aa\LL	.
.	16gg\JJ	.
=41	=41	=41
*tremolo	*	*
8dL 8Bn 8G 8D\	4ddd\	.
8d 8B 8G 8D\	.	.
8dJ 8B 8G 8D\	16ccc#X\LL	.
.	16ddd\JJ	.
=42	=42	=42
8dL 8c 8An 8D\	8.fff#X\L	.
8d 8c 8A 8D\	.	.
.	16eeen\L	.
8dJ 8c 8A 8D\	16ccc\	.
.	16aan\JJ	.
=43	=43	=43
!LO:MO:null:mod=!null	!	!
!LO:TX:t=1°	!	!
*>C1	*>C1	*
8dL 8B 8G\	8gg\L	.
8d 8B 8G\	8dd\	.
8dJ 8B 8G\	8bb\J	.
*Xtremolo	*	*
=44	=4	=44
4d 4B 4G\	4gg\	.
!!LO:PB:g=original
=45:|!	=45:|!	=45:|!
!LO:MO:null:mod=!null	!	!
!LO:TX:t=2°	!	!
*>C2	*>C2	*
!LO:TX:t=P:problem=mixed beam	!	!
8GG/L	4gg\	.
8d 8B 8G\	.	.
8dJ 8B 8G\	8r	.
=46	=46	=46
*tremolo	*	*
8dL 8B 8G\	4.r	.
8d 8B 8G\	.	.
8dJ 8B 8G\	.	.
=47!|:	=47!|:	=47!|:
*>D	*>D	*
8cL 8A 8F# 8D\	16dd\LL	.
.	16ee\	.
8c 8A 8F# 8D\	16dd\	.
.	16cc#X\	.
8cJ 8A 8F# 8D\	16dd\	.
.	16ee\JJ	.
=48	=48	=48
8cL 8A 8F# 8D\	16ff#\LL	.
.	16ee\	.
8c 8A 8F# 8D\	16ff#\	.
.	16gg\	.
8cJ 8A 8F# 8D\	16gg#X\	.
.	16aa\JJ	.
=49	=49	=49
8BL 8G 8D\	4bb\	.
8B 8G 8D\	.	.
8BJ 8G 8D\	8aa\	.
=50	=50	=50
8BL 8G 8D\	8gg\L	.
8B 8G 8D\	8eee\	.
8BJ 8G 8D\	8ddd\J	.
=51	=51	=51
8cL 8A 8F# 8D\	8aa\L	.
8c 8A 8F# 8D\	8eee\	.
8cJ 8A 8F# 8D\	8ddd\J	.
=52	=52	=52
8cL 8A 8F# 8D\	8aa\L	.
8c 8A 8F# 8D\	8eee\	.
8cJ 8A 8F# 8D\	8ddd\J	.
*Xtremolo	*	*
=53	=53	=53
8BL 8G 8D\	16bb\LL	.
.	16ccc\	.
8B 8G 8D\	16ddd\	.
.	16bb\	.
8cJ 8A 8D\	16ccc\	.
.	16aa\JJ	.
=54	=54	=54
4B 4G 4D\	16gg\LL	.
.	16bb\	.
.	16aa\	.
.	16gg\	.
8r	16ff#\	.
.	16ee\JJ	.
=55	=55	=55
*tremolo	*	*
8cL 8A 8F# 8D\	16dd\LL	.
.	16ee\	.
8c 8A 8F# 8D\	16dd\	.
.	16cc#X\	.
8cJ 8A 8F# 8D\	16dd\	.
.	16ee\JJ	.
=56	=56	=56
8cL 8A 8F# 8D\	16ff#\LL	.
.	16ee\	.
8c 8A 8F# 8D\	16ff#\	.
.	16gg\	.
8cJ 8A 8F# 8D\	16gg#X\	.
.	16aa\JJ	.
=57	=57	=57
8BL 8G 8D\	4bb\	.
8B 8G 8D\	.	.
!	!LO:TX:t=P:problem=defekt źródła, uzupełniono na podstawie https://vmirror.imslp.org/files/imglnks/usimg/1/1f/IMSLP775461-PMLP1228387-NDIGMUZ005381.pdf (A.K.)	!
8BJ 8G 8D\	8aa	.
!!LO:LB:g=original
=58	=58	=58
8BL 8G 8D\	8gg\L	.
8B 8G 8D\	8eee\	.
8BJ 8G 8D\	8ddd\J	.
=59	=59	=59
8cL 8A 8F# 8D\	8aa\L	.
8c 8A 8F# 8D\	8eee\	.
8cJ 8A 8F# 8D\	8ddd\J	.
=60	=60	=60
8cL 8A 8F# 8D\	8aa\L	.
8c 8A 8F# 8D\	8eee\	.
8cJ 8A 8F# 8D\	8ddd\J	.
*Xtremolo	*	*
=61	=61	=61
8BL 8G 8D\	16bb\LL	.
.	16ccc\	.
8r	16ddd\	.
.	16bb\	.
8cJ 8A 8F# 8D\	16ccc\	.
.	16aa\JJ	.
=62	=62	=62
4B 4G\	4gg\	.
!!LO:TX:a:rj:t= :mod=[Fine]
=:|!|:	=:|!|:	=:|!|:
*>E	*>E	*
*k[]	*k[]	*
8r	8ggg 8gg\	.
=63	=63	=63
!LO:TX:t=P:problem=mixed beam	!	!
8CL 8CC/	4.ggg [>4.gg\	.
8e 8c 8G\	.	.
8eJ 8c 8G\	.	.
=64	=64	=64
*tremolo	*	*
!	!LO:TX:a:i:cj:mod= :t=et in	!
8eL 8c 8G\	8gg\L]	.
*	*8va	*
8e 8c 8G\	8ccc\	.
8eJ 8c 8G\	8ddd\J	.
*Xtremolo	*	*
=65	=65	=65
!LO:TX:t=P:problem=mixed beam	!	!
8CL 8CC/	[4.eee\	.
8e 8c 8G\	.	.
8eJ 8c 8G\	.	.
=66	=66	=66
*tremolo	*	*
8eL 8c 8G\	8eee\L]	.
8e 8c 8G\	8gg\	.
8eJ 8c 8G\	8ccc\J	.
*Xtremolo	*X8va	*
=67	=67	=67
!LO:TX:t=P:problem=mixed beam	!LO:TX:a:i:mod= :t=loco.	!
8GG/L	4.bb 4.b\	.
8f 8d 8G\	.	.
8fJ 8d 8G\	.	.
=68	=68	=68
*tremolo	*	*
.	8qccc/	.
8fL 8d 8G\	8bb\L	.
8f 8d 8G\	8aa\	.
8fJ 8d 8G\	8bb\J	.
*Xtremolo	*	*
!!LO:LB:g=original
=69	=69	=69
8C\L	4ccc\	.
8e 8c 8G\	.	.
8eJ 8c 8G\	8eee\	.
=70	=70	=70
*tremolo	*	*
8eL 8c 8G\	8gg\L	.
8e 8c 8G\	8ccc\	.
8eJ 8c 8G\	8eee\J	.
*Xtremolo	*	*
=71	=71	=71
8C\L	4.ggg [>4.gg\	.
8e 8c 8G\	.	.
8eJ 8c 8G\	.	.
=72	=72	=72
*tremolo	*	*
!	!LO:TX:a:i:cj:mod= :t=et in	!
8eL 8c 8G\	8gg\L]	.
*	*8va	*
8e 8c 8G\	8ccc\	.
8eJ 8c 8G\	8ddd\J	.
*Xtremolo	*	*
=73	=73	=73
!	!LO:SIC:o=4.eee\	!
8C\L	[4.eee	.
8e 8c 8G\	.	.
8eJ 8c 8G\	.	.
=74	=74	=74
*tremolo	*	*
!	!LO:SIC:o=8eee\L	!
8eL 8c 8G\	8eeeL]	.
8e 8c 8G\	8gg\	.
8eJ 8c 8G\	8ccc\J	.
*Xtremolo	*X8va	*
=75	=75	=75
!LO:TX:t=P:problem=mixed beam	!LO:TX:a:i:mod= :t=loco.	!
8GG/L	4.bb 4.b\	.
8f 8d 8G\	.	.
8fJ 8d 8G\	.	.
=76	=76	=76
*tremolo	*	*
.	8qccc/	.
8fL 8d 8G\	8bb\L	.
8f 8d 8G\	8aa\	.
8fJ 8d 8G\	8bb\J	.
=77	=77	=77
8eL 8c\	8ccc\L	.
8e 8c\	8gg\	.
8eJ 8c\	8eee\J	.
*Xtremolo	*	*
=78	=78	=78
4e 4c\	4ccc\	.
=:|!|:	=:|!|:	=:|!|:
*>F	*>F	*
8r	8cc\	ff
=79	=79	=79
4c 4C\	4gg 4ee-X\	.
8c 8C\	8gg 8ee-\	.
=80	=80	=80
!	!LO:SIC:v:o=4gg 4ee\	!
4c 4C\	4gg 4ee-	.
!	!LO:SIC:v:o=8gg 8ee\	!
8c 8C\	8gg 8ee-	.
=81	=81	=81
4B-X 4BB-X\	4gg 4dd\	.
8B- 8BB-\	8gg 8dd\	.
!!LO:LB:g=original
=82	=82	=82
4B-X 4BB-X\	4gg 4dd\	.
8B- 8BB-\	8gg 8dd\	.
=83	=83	=83
4A-X 4AA-X\	4ccc 4ee-X\	.
8A- 8AA-\	8ccc 8een\	.
=84	=84	=84
!LO:SIC:v:o=4A 4AA\	!	!
4A- 4AA-	4ccc 4ff\	.
!LO:SIC:v:o=8A 8AA\	!	!
8A- 8AA-	8ccc 8ff#X\	.
=85	=85	=85
*tremolo	*tremolo	*
8GL 8D 8GG/	8bbL 8ggn\	.
8G 8D 8GG/	8bb 8gg\	.
8GJ 8D 8GG/	8bbJ 8gg\	.
*Xtremolo	*Xtremolo	*
=86	=86	=86
4G 4D 4GG/	4bb 4gg\	.
8r	8ggg\	.
=87	=87	=87
8C\L	4.eee [>4.gg\	.
8e 8c 8G\	.	.
8eJ 8c 8G\	.	.
=88	=88	=88
*tremolo	*	*
!LO:N:TREM:vis=4	!LO:TX:a:i:cj:mod= :t=et in	!
8eL 8c 8G\	8gg\L]	.
*	*8va	*
8e 8c 8G\	8ccc\	.
8eJ 8c 8G\	8ddd\J	.
*Xtremolo	*	*
=89	=89	=89
8C\L	[4.eee\	.
8e 8c 8G\	.	.
8eJ 8c 8G\	.	.
=90	=90	=90
*tremolo	*	*
!LO:N:TREM:vis=4	!	!
8eL 8c 8G\	8eee\L]	.
8e 8c 8G\	8gg\	.
8eJ 8c 8G\	8ccc\J	.
*Xtremolo	*X8va	*
=91	=91	=91
!LO:TX:t=P:problem=mixed beam	!LO:TX:a:i:mod= :t=loco.	!
8GG/L	4.bb 4.b\	.
8f 8d 8G\	.	.
8fJ 8d 8G\	.	.
=92	=92	=92
.	8qccc/	.
*tremolo	*	*
8fL 8d 8G\	8bb\L	.
8f 8d 8G\	8aa\	.
8fJ 8d 8G\	8bb\J	.
=93	=93	=93
8eL 8c\	8ccc\L	.
8e 8c\	8gg\	.
8eJ 8c\	8eee\J	.
*Xtremolo	*	*
=94	=94	=94
4e 4c\	4ccc\	.
!!LO:TX:a:t= :mod=D.C. al Fine
!LO:TX:b:i:mod= :t=Da Capo.	!	!
==:|!	==:|!	==:|!
*-	*-	*-
!!!system-decoration: {(*)}
!!!RDF**kern: > = above
!!!RDF**kern: < = below
!!!filter-modern: shed -k -e "s/([^a-gA-Gn#X-])[<>]/$1/g" | shed -e "s/TX(.*):t=P:/tx$1:t=P:/LG" | shed -e "s/:cj/:CJ/L" | sic -sq | modori -m | autostem -r | tie -s
!!!ENC: Berenika Jozajtis
!!!END: 2022-08-24
!!!EED: Kamil Watkowski
!!!EEV: 2022-09-30
!!!EED2: Andrzej Kubiczek
!!!EEV2: 2023-07-11
!!!ENC-modern: Andrzej Kubiczek
!!!END-modern: 2023-07-11
